X:160
T:Stompin' At Decca
C:Django Reinhardt & Stephane Grappelli
N:TablEdited by Jean-Pierre Woos
L:1/8
Q:1/4=260
M:4/4
K:G
z8 | z8 |: DE GB de g2 | b3g z3D | _EG _B_d _eg _b2 | _b3g z4 | z2 ab ag e2 | 
fg ec BA dB | GG G2 G4 | z8 | DE GB de g2 | b3g z3D | _EG _B_d _eg ^a2 | (3_ba_a g6 | 
z2 a/b/z ag ec | BA af _ec AF | G8 | z2 (3bc'b ^ab d'c' | b2 b2 B4 | B^d fb zc' zz | 
(3z2B2 e2 (3^g2b2 c'2 | b6 ee | b4 ge ^cB | dB ^cB zG FE | E2 E2 E2 E2 | ED AE z2 D2 | 
DE GB de g2 | b3g z3D | _EG _B2 ^d2 =d^c | z^A G^D z4 | z2 a/b/z ag ec | BA af _ec AF | 
GG G2 G4 | z8 :| 


